Papirus/32x32/apps/remnote.svg

<svg width="32" height="32" version="1.1" xmlns="http://www.w3.org/2000/svg">
 <rect x="2" y="3" width="28" height="28" ry="6.4860873" style="opacity:.2"/>
 <rect x="2" y="2" width="28" height="28" ry="6.4860873" style="fill:#e4e4e4"/>
 <path d="m14.80782 7.0000008c-0.457648 0-1.187208-0.0012-1.36206 0.087473-0.153773 0.077718-0.277665 0.2022625-0.356026 0.354787-0.08906 0.1733755-0.08949 0.399744-0.08949 0.853709v5.1190622l-3.1473685-3.6189792c-0.2592735-0.2592735-0.4845775-0.480906-0.671213-0.541061-0.164155-0.052957-0.3404805-0.052957-0.5046255 0-0.1866385 0.060156-0.3491745 0.2198925-0.672864 0.541061l-1.6870295 1.6734202c-0.323456 0.320951-0.4848455 0.48238-0.5454615 0.667408-0.053344 0.162775-0.05335 0.337797 0 0.500583 0.060606 0.185047 0.2220055 0.34483 0.5454615 0.665798l3.6467915 3.696738h-4.655867c-0.4576635 0-0.687486 0.023-0.862291 0.111304-0.1537615 0.077727-0.277678 0.200621-0.356023 0.353152-0.089067 0.173351-0.089822 0.401387-0.089822 0.855344v2.266803c0 0.453927 9.5e-4 0.681981 0.089822 0.855321 0.078348 0.152526 0.2022615 0.275448 0.356023 0.353147 0.174805 0.088339 0.4046275 0.204929 0.862291 0.204929h7.058216l2.586869-3.5388c0.275248-0.449758 0.543285-0.901285 1.046847-0.9422 0.503562-0.04091 0.756284 0.565799 1.0452 0.9422l2.586898 3.5388h7.059838c0.457714 0 0.685799-0.116773 0.860652-0.204929 0.153772-0.0777 0.279313-0.200621 0.357645-0.353147 0.08906-0.17334 0.08983-0.401394 0.08983-0.855321v-2.266803c0-0.453957-9.5e-4 -0.681993-0.08983-0.855344-0.078332-0.152531-0.203873-0.275424-0.357645-0.353152-0.174853-0.08842-0.402938-0.111304-0.860652-0.111304h-4.657518l3.646792-3.696738c0.32342-0.320968 0.486475-0.48076 0.547108-0.665798 0.05337-0.162786 0.05337-0.337801 0-0.500583-0.06063-0.185028-0.223688-0.346456-0.547108-0.667408l-1.685383-1.6734202c-0.323699-0.3211785-0.486215-0.480906-0.672864-0.541061-0.164218-0.052956-0.340498-0.052956-0.504625 0-0.186646 0.060156-0.34919 0.2198825-0.67286 0.541061l-3.145908 3.6189472v-5.1190307c0-0.453965-6e-4 -0.6803335-0.08949-0.853709-0.07837-0.1525245-0.203886-0.2770685-0.35765-0.354787-0.174852-0.088342-0.902602-0.087473-1.360249-0.087473zm4.824278 14.999999h-7.265814l-2.297827 2.924849c-0.5047885 0.667831-0.757122 1.001945-0.751241 1.281371 0.005625 0.243268 0.1188165 0.472119 0.3119215 0.62208 0.2219475 0.172354 0.6430115 0.1717 1.4845205 0.1717h9.771037c0.841517 0 1.262612 8e-4 1.484518-0.171701 0.19308-0.14996 0.308394-0.378811 0.313572-0.622079 6e-3 -0.279426-0.246446-0.61354-0.751242-1.281371z" style="fill-rule:evenodd;opacity:.2;stop-color:#000000"/>
 <path d="m14.80782 6.0000005c-0.457648 0-1.187208-0.0012-1.36206 0.087473-0.153773 0.077718-0.277665 0.2022625-0.356026 0.354787-0.08906 0.1733755-0.08949 0.399744-0.08949 0.853709v5.1190625l-3.1473685-3.6189795c-0.2592735-0.2592735-0.4845775-0.480906-0.671213-0.541061-0.164155-0.0529565-0.3404805-0.0529565-0.5046255 0-0.1866385 0.060156-0.3491745 0.2198925-0.672864 0.541061l-1.6870295 1.6734205c-0.323456 0.320951-0.4848455 0.48238-0.5454615 0.667408-0.053344 0.162775-0.05335 0.337797 0 0.500583 0.060606 0.185047 0.2220055 0.34483 0.5454615 0.665798l3.6467915 3.696738h-4.655867c-0.4576635 0-0.687486 0.023-0.862291 0.111304-0.1537615 0.077727-0.277678 0.200621-0.356023 0.353152-0.089067 0.173351-0.089822 0.401387-0.089822 0.855344v2.266803c0 0.453927 9.5e-4 0.681981 0.089822 0.855321 0.078348 0.152526 0.2022615 0.275448 0.356023 0.353147 0.174805 0.088339 0.4046275 0.204929 0.862291 0.204929h7.058216l2.586869-3.5388c0.275248-0.449758 0.543285-0.901285 1.046847-0.9422 0.503562-0.04091 0.756284 0.565799 1.0452 0.9422l2.586898 3.5388h7.059838c0.457714 0 0.685799-0.116773 0.860652-0.204929 0.153772-0.0777 0.279313-0.200621 0.357645-0.353147 0.08906-0.17334 0.08983-0.401394 0.08983-0.855321v-2.266803c0-0.453957-9.5e-4 -0.681993-0.08983-0.855344-0.078332-0.152531-0.203873-0.275424-0.357645-0.353152-0.174853-0.08842-0.402938-0.111304-0.860652-0.111304h-4.657518l3.646792-3.696738c0.32342-0.320968 0.486475-0.48076 0.547108-0.665798 0.05337-0.162786 0.05337-0.337801 0-0.500583-0.06063-0.185028-0.223688-0.346456-0.547108-0.667408l-1.685383-1.6734205c-0.323699-0.3211785-0.486215-0.480906-0.672864-0.541061-0.164218-0.052956-0.340498-0.052956-0.504625 0-0.186646 0.060156-0.34919 0.2198825-0.67286 0.541061l-3.145908 3.6189475v-5.119031c0-0.453965-6e-4 -0.6803335-0.08949-0.853709-0.078365-0.1525245-0.203886-0.2770685-0.35765-0.354787-0.174852-0.0883415-0.902602-0.0874725-1.360249-0.0874725zm4.824278 15h-7.265814l-2.297827 2.924849c-0.5047885 0.667831-0.757122 1.001945-0.751241 1.281371 0.005625 0.243268 0.1188165 0.472119 0.3119215 0.62208 0.2219475 0.172354 0.6430115 0.1717 1.4845205 0.1717h9.771037c0.841517 0 1.262612 8e-4 1.484518-0.171701 0.19308-0.14996 0.308394-0.378811 0.313572-0.622079 6e-3 -0.279426-0.246446-0.61354-0.751242-1.281371z" style="fill-rule:evenodd;fill:#506cf7;stop-color:#000000"/>
 <path d="M 8.4863281 2 C 4.8930357 2 2 4.8930357 2 8.4863281 L 2 9.4863281 C 2 5.8930357 4.8930357 3 8.4863281 3 L 23.513672 3 C 27.106964 3 30 5.8930357 30 9.4863281 L 30 8.4863281 C 30 4.8930357 27.106964 2 23.513672 2 L 8.4863281 2 z " style="fill:#ffffff;opacity:.2"/>
 <path d="m14.808594 6c-0.457648 0-1.18843-7.824e-4 -1.363282 0.0878906-0.153772 0.077718-0.277107 0.2009911-0.355468 0.3535156-0.08906 0.1733755-0.089844 0.4015038-0.089844 0.8554688v1c0-0.453965 7.84e-4 -0.6820933 0.089844-0.8554688 0.078361-0.1525244 0.201696-0.2757976 0.355468-0.3535156 0.174852-0.088673 0.905634-0.0878906 1.363282-0.0878906h2.382812c0.457647 0 1.186476-4.514e-4 1.361328 0.0878906 0.153764 0.0777185 0.279052 0.2009911 0.357422 0.3535156 0.08889 0.1733756 0.089844 0.4015038 0.089844 0.8554688v-1c0-0.453965-9.54e-4 -0.6820932-0.089844-0.8554688-0.078365-0.1525245-0.203658-0.2757971-0.357422-0.3535156-0.174852-0.0883415-0.903681-0.0878906-1.361328-0.0878906h-2.382812zm-5.8789065 2.2148438c-0.0851189 0-0.1698806 0.0145373-0.2519531 0.0410156-0.1866385 0.060156-0.3501386 0.2198471-0.6738282 0.5410156l-1.6875 1.671875c-0.323456 0.320951-0.4843058 0.482941-0.5449218 0.667969-0.053344 0.162775-0.05335 0.337214 0 0.5 0.0267865 0.081786 0.0769829 0.161986 0.1484375 0.25 0.0902049-0.111502 0.216153-0.239034 0.3964843-0.417969l1.6875-1.671875c0.3236896-0.3211685 0.4871897-0.4808596 0.6738282-0.5410156 0.164145-0.052957 0.3397512-0.052957 0.5039062 0 0.1866355 0.060155 0.4126015 0.2817421 0.671875 0.5410156l3.1464844 3.617187v-1l-3.1464844-3.617187c-0.2592735-0.2592735-0.4852395-0.4808606-0.671875-0.5410156-0.0820775-0.0264783-0.1668342-0.0410156-0.2519531-0.0410156zm14.140624 0c-0.085113 0-0.169889 0.0145376-0.251953 0.0410156-0.186646 0.060156-0.350158 0.2198371-0.673828 0.5410156l-3.144531 3.617187v1l3.144531-3.617187c0.32367-0.3211785 0.487182-0.4808596 0.673828-0.5410156 0.164127-0.052956 0.339689-0.052956 0.503907 0 0.186649 0.060155 0.350129 0.2198371 0.673828 0.5410156l1.685547 1.671875c0.180195 0.178821 0.305829 0.306516 0.396484 0.417969 0.071918-0.088107 0.12357-0.168149 0.150391-0.25 0.05337-0.162786 0.05337-0.337218 0-0.5-0.06063-0.185028-0.223455-0.347017-0.546875-0.667969l-1.685547-1.671875c-0.323699-0.3211785-0.487179-0.4808606-0.673828-0.5410156-0.082109-0.026478-0.16684-0.0410156-0.251954-0.0410156zm-17.761718 7.7851562c-0.4576635 0-0.6884763 0.023024-0.8632813 0.111328-0.1537615 0.077727-0.2771238 0.200985-0.3554687 0.353516-0.0890671 0.173351-0.0898438 0.401512-0.0898438 0.855468v1c0-0.453956 7.767e-4 -0.682117 0.0898438-0.855468 0.0783449-0.152531 0.2017072-0.275789 0.3554687-0.353516 0.174805-0.088304 0.4056178-0.111328 0.8632813-0.111328h4.65625l-0.9863282-1h-3.6699218zm17.71289 0-0.986328 1h4.65625c0.457714 0 0.686475 0.022908 0.861328 0.111328 0.153772 0.077728 0.27909 0.200985 0.357422 0.353516 0.08888 0.173351 0.089844 0.401512 0.089844 0.855468v-1c0-0.453956-9.64e-4 -0.682117-0.089844-0.855468-0.078332-0.152531-0.20365-0.275788-0.357422-0.353516-0.174853-0.08842-0.403614-0.111328-0.861328-0.111328h-3.669922zm-9.923828 5-0.730468 1h7.265624l-0.730468-1h-5.804688zm6.535156 1 2.298829 2.925781c0.250262 0.33109 0.437029 0.578253 0.5625 0.779297 0.116283-0.139718 0.18553-0.313739 0.189453-0.498047 6e-3 -0.279426-0.247157-0.613419-0.751953-1.28125l-1.513672-1.925781h-0.785157zm-7.265624 0h-0.785157l-1.513672 1.925781c-0.5047881 0.667831-0.7578338 1.001824-0.7519528 1.28125 0.0042832 0.185237 0.0726433 0.359946 0.1894532 0.5 0.1254558-0.201249 0.3117522-0.449512 0.5624996-0.78125l2.298829-2.925781z" style="fill-rule:evenodd;fill:#ffffff;opacity:.2;stop-color:#000000"/>
</svg>

<svg xmlns="http://www.w3.org/2000/svg" width="32" height="32" version="1.1">
 <rect style="opacity:0.2" width="28" height="28" x="2" y="3" rx="6.5" ry="6.5"/>
 <rect style="fill:#e4e4e4" width="28" height="28" x="2" y="2" rx="6.5" ry="6.5"/>
 <path style="opacity:0.2;fill:#ffffff" d="M 8.5,2 C 4.899,2 2,4.899 2,8.5 V 9.5 C 2,5.899 4.899,3 8.5,3 H 23.5 C 27.101,3 30,5.899 30,9.5 V 8.5 C 30,4.899 27.101,2 23.5,2 Z"/>
 <path style="opacity:0.2" d="M 14.81,7 C 14.35,7 13.62,7 13.45,7.09 13.29,7.17 13.17,7.29 13.09,7.44 13,7.62 13,7.84 13,8.3 V 13.41 L 9.85,9.8 C 9.59,9.54 9.37,9.32 9.18,9.26 9.02,9.2 8.84,9.2 8.68,9.26 8.49,9.32 8.33,9.47 8,9.8 L 6.32,11.47 C 5.99,11.79 5.83,11.95 5.77,12.14 5.72,12.3 5.72,12.47 5.77,12.64 5.83,12.82 5.99,12.98 6.32,13.3 L 9.96,17 H 5.31 C 4.85,17 4.62,17.02 4.45,17.11 4.29,17.19 4.17,17.31 4.09,17.46 4,17.64 4,17.87 4,18.32 V 20.59 C 4,21.04 4,21.27 4.09,21.44 4.17,21.59 4.29,21.72 4.45,21.8 4.62,21.88 4.85,22 5.31,22 H 12.37 L 14.95,18.46 C 15.23,18.01 15.5,17.56 16,17.52 16.5,17.48 16.76,18.09 17.05,18.46 L 19.63,22 H 26.69 C 27.15,22 27.38,21.88 27.55,21.8 27.71,21.72 27.83,21.59 27.91,21.44 28,21.27 28,21.04 28,20.59 V 18.32 C 28,17.87 28,17.64 27.91,17.46 27.83,17.31 27.71,17.19 27.55,17.11 27.38,17.02 27.15,17 26.69,17 H 22.03 L 25.68,13.3 C 26,12.98 26.17,12.82 26.23,12.64 26.28,12.47 26.28,12.3 26.23,12.14 26.17,11.95 26,11.79 25.68,11.47 L 24,9.8 C 23.67,9.47 23.51,9.32 23.32,9.26 23.16,9.2 22.98,9.2 22.82,9.26 22.63,9.32 22.47,9.47 22.14,9.8 L 19,13.41 V 8.3 C 19,7.84 19,7.62 18.91,7.44 18.83,7.29 18.71,7.17 18.55,7.09 18.38,7 17.65,7 17.19,7 Z M 19.63,22 H 12.37 L 10.07,24.93 C 9.56,25.59 9.31,25.93 9.32,26.21 9.32,26.45 9.44,26.68 9.63,26.83 9.85,27 10.27,27 11.11,27 H 20.89 C 21.73,27 22.15,27 22.37,26.83 22.56,26.68 22.68,26.45 22.68,26.21 22.69,25.93 22.44,25.59 21.93,24.93 Z"/>
 <path style="fill:#506cf7" d="M 14.81,6 C 14.35,6 13.62,6 13.45,6.09 13.29,6.17 13.17,6.29 13.09,6.44 13,6.62 13,6.84 13,7.3 V 12.41 L 9.85,8.8 C 9.59,8.54 9.37,8.32 9.18,8.26 9.02,8.2 8.84,8.2 8.68,8.26 8.49,8.32 8.33,8.47 8,8.8 L 6.32,10.47 C 5.99,10.79 5.83,10.95 5.77,11.14 5.72,11.3 5.72,11.47 5.77,11.64 5.83,11.82 5.99,11.98 6.32,12.3 L 9.96,16 H 5.31 C 4.85,16 4.62,16.02 4.45,16.11 4.29,16.19 4.17,16.31 4.09,16.46 4,16.64 4,16.87 4,17.32 V 19.59 C 4,20.04 4,20.27 4.09,20.44 4.17,20.59 4.29,20.72 4.45,20.8 4.62,20.88 4.85,21 5.31,21 H 12.37 L 14.95,17.46 C 15.23,17.01 15.5,16.56 16,16.52 16.5,16.48 16.76,17.09 17.05,17.46 L 19.63,21 H 26.69 C 27.15,21 27.38,20.88 27.55,20.8 27.71,20.72 27.83,20.59 27.91,20.44 28,20.27 28,20.04 28,19.59 V 17.32 C 28,16.87 28,16.64 27.91,16.46 27.83,16.31 27.71,16.19 27.55,16.11 27.38,16.02 27.15,16 26.69,16 H 22.03 L 25.68,12.3 C 26,11.98 26.17,11.82 26.23,11.64 26.28,11.47 26.28,11.3 26.23,11.14 26.17,10.95 26,10.79 25.68,10.47 L 24,8.8 C 23.67,8.47 23.51,8.32 23.32,8.26 23.16,8.2 22.98,8.2 22.82,8.26 22.63,8.32 22.47,8.47 22.14,8.8 L 19,12.41 V 7.3 C 19,6.84 19,6.62 18.91,6.44 18.83,6.29 18.71,6.17 18.55,6.09 18.38,6 17.65,6 17.19,6 Z M 19.63,21 H 12.37 L 10.07,23.93 C 9.56,24.59 9.31,24.93 9.32,25.21 9.32,25.45 9.44,25.68 9.63,25.83 9.85,26 10.27,26 11.11,26 H 20.89 C 21.73,26 22.15,26 22.37,25.83 22.56,25.68 22.68,25.45 22.68,25.21 22.69,24.93 22.44,24.59 21.93,23.93 Z"/>
 <path style="opacity:0.2;fill:#ffffff" d="M 14.811,6 C 14.351,6 13.619,5.9998 13.449,6.0898 13.289,6.1698 13.17,6.2895 13.09,6.4395 13,6.6195 13,6.8408 13,7.3008 V 8.3008 C 13,7.8408 13,7.6195 13.09,7.4395 13.17,7.2895 13.289,7.1698 13.449,7.0898 13.619,6.9998 14.351,7 14.811,7 H 17.189 C 17.649,7 18.381,6.9998 18.551,7.0898 18.711,7.1698 18.83,7.2895 18.91,7.4395 19,7.6195 19,7.8408 19,8.3008 V 7.3008 C 19,6.8408 19,6.6195 18.91,6.4395 18.83,6.2895 18.711,6.1698 18.551,6.0898 18.381,5.9998 17.649,6 17.189,6 Z M 8.9297,8.2148 C 8.8447,8.2148 8.7597,8.2298 8.6797,8.2598 8.4897,8.3198 8.33,8.4708 8,8.8008 L 6.3203,10.471 C 5.9903,10.791 5.8295,10.951 5.7695,11.141 5.7195,11.301 5.7195,11.471 5.7695,11.641 5.7963,11.721 5.8471,11.798 5.9199,11.887 6.0103,11.775 6.137,11.648 6.3203,11.471 L 8,9.8008 C 8.33,9.4708 8.4897,9.3198 8.6797,9.2598 8.8397,9.1998 9.0197,9.1998 9.1797,9.2598 9.3697,9.3198 9.5896,9.5408 9.8496,9.8008 L 13,13.41 V 12.41 L 9.8496,8.8008 C 9.5896,8.5408 9.3697,8.3198 9.1797,8.2598 9.0997,8.2298 9.0147,8.2148 8.9297,8.2148 Z M 23.07,8.2148 C 22.985,8.2148 22.9,8.2298 22.82,8.2598 22.63,8.3198 22.471,8.4708 22.141,8.8008 L 19,12.41 V 13.41 L 22.141,9.8008 C 22.471,9.4708 22.63,9.3198 22.82,9.2598 22.98,9.1998 23.16,9.1998 23.32,9.2598 23.51,9.3198 23.67,9.4708 24,9.8008 L 25.68,11.471 C 25.858,11.649 25.986,11.775 26.078,11.887 26.152,11.799 26.204,11.721 26.23,11.641 26.28,11.471 26.28,11.301 26.23,11.141 26.17,10.951 26,10.791 25.68,10.471 L 24,8.8008 C 23.67,8.4708 23.51,8.3198 23.32,8.2598 23.24,8.2298 23.155,8.2148 23.07,8.2148 Z M 5.3105,16 C 4.8505,16 4.6192,16.019 4.4492,16.109 4.2892,16.189 4.1698,16.311 4.0898,16.461 3.9998,16.641 4,16.87 4,17.32 V 18.32 C 4,17.87 3.9998,17.641 4.0898,17.461 4.1698,17.311 4.2892,17.189 4.4492,17.109 4.6192,17.019 4.8505,17 5.3105,17 H 9.9609 L 8.9766,16 Z M 23.016,16 22.029,17 H 26.689 C 27.149,17 27.381,17.019 27.551,17.109 27.711,17.189 27.83,17.311 27.91,17.461 28,17.641 28,17.87 28,18.32 V 17.32 C 28,16.87 28,16.641 27.91,16.461 27.83,16.311 27.711,16.189 27.551,16.109 27.381,16.019 27.149,16 26.689,16 Z M 13.098,21 12.369,22 H 19.631 L 18.902,21 Z M 19.631,22 21.93,24.93 C 22.182,25.256 22.371,25.504 22.496,25.705 22.611,25.566 22.68,25.392 22.68,25.211 22.69,24.931 22.44,24.59 21.93,23.93 L 20.416,22 Z M 12.369,22 H 11.584 L 10.07,23.93 C 9.5603,24.59 9.3103,24.931 9.3203,25.211 9.3203,25.392 9.3889,25.566 9.5039,25.705 9.6289,25.504 9.818,25.256 10.07,24.93 Z"/>
</svg>
